X:2159
L:1/4
Q:1/2=100
M:2/2
K:D
 A d c d | e/d/c/B/ A2 | G G F B | A/G/F/E/ F D | A d c d | e/d/c/B/ A f | g/f/e/d/ e/d/c/e/ | 
 d4 || f a f d | g/f/e/d/ c A | B c d F | E ^G A2 | E F G f | g/f/e/d/ c A | B c d F/G/ | 
 A A, D2 |]

